storage/app/icons/tabler/filled/device-tablet.svg

<!--
version: "2.15"
unicode: "fa3a"
-->
<svg
  xmlns="http://www.w3.org/2000/svg"
  width="24"
  height="24"
  viewBox="0 0 24 24"
  fill="currentColor"
>
  <path d="M18 2a2 2 0 0 1 1.995 1.85l.005 .15v16a2 2 0 0 1 -1.85 1.995l-.15 .005h-12a2 2 0 0 1 -1.995 -1.85l-.005 -.15v-16a2 2 0 0 1 1.85 -1.995l.15 -.005h12zm-6 13a2 2 0 0 0 -1.977 1.697l-.018 .154l-.005 .149l.005 .15a2 2 0 1 0 1.995 -2.15z" />
</svg>

<svg xmlns="http://www.w3.org/2000/svg" width="24" height="24" fill="currentColor" viewBox="0 0 24 24"><path d="M18 2a2 2 0 0 1 1.995 1.85L20 4v16a2 2 0 0 1-1.85 1.995L18 22H6a2 2 0 0 1-1.995-1.85L4 20V4a2 2 0 0 1 1.85-1.995L6 2zm-6 13a2 2 0 0 0-1.977 1.697l-.018.154L10 17l.005.15A2 2 0 1 0 12 15"/></svg>
